img/icon-contact.svg

<svg xmlns="http://www.w3.org/2000/svg" preserveAspectRatio="xMidYMid" width="16" height="13" viewBox="0 0 16 13"><path d="M14.913.004H1.087c-.6 0-1.09.498-1.09 1.107v10.785c0 .61.49 1.107 1.09 1.107h13.826c.6 0 1.092-.498 1.092-1.107V1.11c0-.608-.492-1.106-1.092-1.106zm0 11.357L11.19 7.588c-.213-.216-.558-.216-.77 0-.214.216-.214.567 0 .782l3.477 3.525H2.172L5.65 8.37c.213-.216.213-.567 0-.783-.214-.216-.56-.216-.772 0l-3.79 3.843V1.923l5.936 6.02c.31.31.72.484 1.158.484.438 0 .486-.173.794-.485l5.937-6.02v9.44zM1.83 1.11h12.34L8.205 7.16c-.204.207-.203.207-.408 0L1.83 1.11z" id="path-1" class="cls-2" fill-rule="evenodd"/></svg>

<svg xmlns="http://www.w3.org/2000/svg" xmlns:xlink="http://www.w3.org/1999/xlink" preserveAspectRatio="xMidYMid" width="16" height="13" viewBox="0 0 16 13">
  <defs>
    <style>

      .cls-2 {
        fill: #088ecc;
      }
    </style>
  </defs>
  <path d="M14.913,0.004 C14.913,0.004 1.087,0.004 1.087,0.004 C0.487,0.004 -0.004,0.502 -0.004,1.111 C-0.004,1.111 -0.004,11.895 -0.004,11.895 C-0.004,12.504 0.487,13.002 1.087,13.002 C1.087,13.002 14.913,13.002 14.913,13.002 C15.513,13.002 16.005,12.504 16.005,11.895 C16.005,11.895 16.005,1.111 16.005,1.111 C16.005,0.502 15.513,0.004 14.913,0.004 ZM14.913,11.361 C14.913,11.361 11.191,7.587 11.191,7.587 C10.977,7.371 10.632,7.371 10.419,7.587 C10.206,7.803 10.206,8.154 10.419,8.369 C10.419,8.369 13.897,11.895 13.897,11.895 C13.897,11.895 2.172,11.895 2.172,11.895 C2.172,11.895 5.650,8.369 5.650,8.369 C5.863,8.154 5.863,7.803 5.650,7.587 C5.436,7.371 5.091,7.371 4.878,7.587 C4.878,7.587 1.087,11.430 1.087,11.430 C1.087,11.430 1.087,1.923 1.087,1.923 C1.087,1.923 7.024,7.942 7.024,7.942 C7.333,8.254 7.744,8.427 8.182,8.427 C8.620,8.427 8.668,8.254 8.976,7.942 C8.976,7.942 14.913,1.923 14.913,1.923 C14.913,1.923 14.913,11.361 14.913,11.361 ZM1.830,1.111 C1.830,1.111 14.171,1.111 14.171,1.111 C14.171,1.111 8.204,7.159 8.204,7.159 C8.000,7.367 8.001,7.367 7.796,7.159 C7.796,7.159 1.830,1.111 1.830,1.111 Z" id="path-1" class="cls-2" fill-rule="evenodd"/>
</svg>
